X:1
T:Standin In The Need of Prayer
T:I'm going to live with Jesus
T:Copyright 1881 by The Riverside Press
T:Rodeheaver's Plantation Melodies
Z:Rodeheaver's Plantation Melodies
L:1/8
Q:1/4=100
M:6/8
K:G
V:1 treble nm="Soprano" snm="S."
V:1
 B | B2 B A2 G | A B2- B2 E | G2 G F2 F | E2 E F2 B | B2 B A2 G | A B2- B2 E | G2 G F2 F | E3 || %9
w: I'm|going to live with|Je- sus- . A|sol- dier of the|ju- bi- lee. I'm|going to live with|Je- sus- . A|sol- dier of the|cross.|
 G3 | B,EE E2 F | G2 E F2 F | G2 G F2 F | E2 E F2 !fermata!G | %14
w: Oh!|when you get there re-|mem- ber me. A|sol- dier of the|ju- bi- lee. Oh!|
"_2. I've started out for Heaven. A soldier of the jubilee.\n    I've started out for Heaven. A soldier of the cross..\n\n3. I know I love my Jesus. A soldier of the jubilee.\n    I know I love my Jesus. A soldier of the cross." B,EE E2 F | %15
w: when you get there re-|
 G2 E F2 F | B2 B F2 F | E3- E2 |] %18
w: mem- ber me. A|sol- dier of the|cross- .|

